.github/assets/aws/aws-ec2.svg

<?xml version="1.0" encoding="UTF-8"?>
<svg width="256px" height="256px" viewBox="0 0 256 256" version="1.1" xmlns="http://www.w3.org/2000/svg" xmlns:xlink="http://www.w3.org/1999/xlink" preserveAspectRatio="xMidYMid">
    <title>AWS Elastic Compute Cloud (EC2)</title>
    <defs>
        <linearGradient x1="0%" y1="100%" x2="100%" y2="0%" id="linearGradient-1">
            <stop stop-color="#C8511B" offset="0%"></stop>
            <stop stop-color="#FF9900" offset="100%"></stop>
        </linearGradient>
    </defs>
    <g>
        <rect fill="url(#linearGradient-1)" x="0" y="0" width="256" height="256"></rect>
        <path d="M86.4,169.6 L166.4,169.6 L166.4,89.6 L86.4,89.6 L86.4,169.6 Z M172.8,89.6 L185.6,89.6 L185.6,96 L172.8,96 L172.8,108.8 L185.6,108.8 L185.6,115.2 L172.8,115.2 L172.8,124.8 L185.6,124.8 L185.6,131.2 L172.8,131.2 L172.8,144 L185.6,144 L185.6,150.4 L172.8,150.4 L172.8,163.2 L185.6,163.2 L185.6,169.6 L172.8,169.6 L172.8,170.0352 C172.8,173.3248 170.1248,176 166.8352,176 L166.4,176 L166.4,188.8 L160,188.8 L160,176 L147.2,176 L147.2,188.8 L140.8,188.8 L140.8,176 L131.2,176 L131.2,188.8 L124.8,188.8 L124.8,176 L112,176 L112,188.8 L105.6,188.8 L105.6,176 L92.8,176 L92.8,188.8 L86.4,188.8 L86.4,176 L85.9648,176 C82.6752,176 80,173.3248 80,170.0352 L80,169.6 L70.4,169.6 L70.4,163.2 L80,163.2 L80,150.4 L70.4,150.4 L70.4,144 L80,144 L80,131.2 L70.4,131.2 L70.4,124.8 L80,124.8 L80,115.2 L70.4,115.2 L70.4,108.8 L80,108.8 L80,96 L70.4,96 L70.4,89.6 L80,89.6 L80,89.1648 C80,85.8752 82.6752,83.2 85.9648,83.2 L86.4,83.2 L86.4,70.4 L92.8,70.4 L92.8,83.2 L105.6,83.2 L105.6,70.4 L112,70.4 L112,83.2 L124.8,83.2 L124.8,70.4 L131.2,70.4 L131.2,83.2 L140.8,83.2 L140.8,70.4 L147.2,70.4 L147.2,83.2 L160,83.2 L160,70.4 L166.4,70.4 L166.4,83.2 L166.8352,83.2 C170.1248,83.2 172.8,85.8752 172.8,89.1648 L172.8,89.6 Z M131.2,210.8032 C131.2,211.0208 131.0208,211.2 130.8032,211.2 L45.1968,211.2 C44.9792,211.2 44.8,211.0208 44.8,210.8032 L44.8,125.1968 C44.8,124.9792 44.9792,124.8 45.1968,124.8 L64,124.8 L64,118.4 L45.1968,118.4 C41.4496,118.4 38.4,121.4496 38.4,125.1968 L38.4,210.8032 C38.4,214.5504 41.4496,217.6 45.1968,217.6 L130.8032,217.6 C134.5504,217.6 137.6,214.5504 137.6,210.8032 L137.6,195.2 L131.2,195.2 L131.2,210.8032 Z M217.6,45.1968 L217.6,130.8032 C217.6,134.5504 214.5504,137.6 210.8032,137.6 L192,137.6 L192,131.2 L210.8032,131.2 C211.0208,131.2 211.2,131.0208 211.2,130.8032 L211.2,45.1968 C211.2,44.9792 211.0208,44.8 210.8032,44.8 L125.1968,44.8 C124.9792,44.8 124.8,44.9792 124.8,45.1968 L124.8,64 L118.4,64 L118.4,45.1968 C118.4,41.4496 121.4496,38.4 125.1968,38.4 L210.8032,38.4 C214.5504,38.4 217.6,41.4496 217.6,45.1968 L217.6,45.1968 Z" fill="#FFFFFF"></path>
    </g>
</svg>

<svg xmlns="http://www.w3.org/2000/svg" width="256" height="256" preserveAspectRatio="xMidYMid" viewBox="0 0 256 256"><title>AWS Elastic Compute Cloud (EC2)</title><defs><linearGradient id="a" x1="0%" x2="100%" y1="100%" y2="0%"><stop offset="0%" stop-color="#c8511b"/><stop offset="100%" stop-color="#f90"/></linearGradient></defs><path fill="url(#a)" d="M0 0h256v256H0z"/><path fill="#fff" d="M86.4 169.6h80v-80h-80zm86.4-80h12.8V96h-12.8v12.8h12.8v6.4h-12.8v9.6h12.8v6.4h-12.8V144h12.8v6.4h-12.8v12.8h12.8v6.4h-12.8v.435a5.97 5.97 0 0 1-5.965 5.965h-.435v12.8H160V176h-12.8v12.8h-6.4V176h-9.6v12.8h-6.4V176H112v12.8h-6.4V176H92.8v12.8h-6.4V176h-.435A5.97 5.97 0 0 1 80 170.035v-.435h-9.6v-6.4H80v-12.8h-9.6V144H80v-12.8h-9.6v-6.4H80v-9.6h-9.6v-6.4H80V96h-9.6v-6.4H80v-.435a5.97 5.97 0 0 1 5.965-5.965h.435V70.4h6.4v12.8h12.8V70.4h6.4v12.8h12.8V70.4h6.4v12.8h9.6V70.4h6.4v12.8H160V70.4h6.4v12.8h.435a5.97 5.97 0 0 1 5.965 5.965zm-41.6 121.203a.4.4 0 0 1-.397.397H45.197a.4.4 0 0 1-.397-.397v-85.606a.4.4 0 0 1 .397-.397H64v-6.4H45.197a6.805 6.805 0 0 0-6.797 6.797v85.606a6.805 6.805 0 0 0 6.797 6.797h85.606a6.805 6.805 0 0 0 6.797-6.797V195.2h-6.4zm86.4-165.606v85.606a6.805 6.805 0 0 1-6.797 6.797H192v-6.4h18.803a.4.4 0 0 0 .397-.397V45.197a.4.4 0 0 0-.397-.397h-85.606a.4.4 0 0 0-.397.397V64h-6.4V45.197a6.805 6.805 0 0 1 6.797-6.797h85.606a6.805 6.805 0 0 1 6.797 6.797"/></svg>
